U/upgrad.com logo.svg

<?xml version="1.0" ?>
<svg xmlns="http://www.w3.org/2000/svg" baseProfile="tiny-ps" viewBox="0 0 10779.1 10779.1" xml:space="preserve">
	<g>
		<path id="Shape" fill="#EE2C3C" d="M1740.1,4722v1419.5h-493.5v-176.7c-100.5,140.1-246.7,219.3-453.9,219.3   c-335.1,0-527-191.9-527-548.3V4722h496.5v810.3c0,188.9,76.2,265,231.5,265c164.5,0,252.8-91.4,252.8-280.3V4722H1740.1z"/>
		<path id="Shape_1_" fill="#EE2C3C" d="M3583.1,5431.8c0,164.5-30.5,298.5-79.2,411.2c-103.6,213.2-301.6,341.2-575.7,341.2   c-191.9,0-341.2-64-444.8-195v731.1h-496.5V4722h484.4v170.6c106.6-146.2,258.9-213.2,456.9-213.2c274.2,0,472.2,127.9,575.7,344.2   C3555.7,5136.3,3583.1,5267.3,3583.1,5431.8z M3056.1,5431.8c0-100.5-12.2-170.6-36.6-222.4c-42.6-94.4-134-143.2-255.9-143.2   c-185.8,0-289.4,112.7-289.4,322.9v79.2c0,210.2,100.5,325.9,289.4,325.9c121.8,0,210.2-48.7,255.9-143.2   C3043.9,5599.4,3056.1,5529.3,3056.1,5431.8z"/>
		<path id="Shape_2_" fill="#EE2C3C" d="M6081,4722h493.5V4850c76.2-118.8,161.5-167.5,280.3-167.5c176.7,0,289.4,109.7,289.4,277.2   c0,158.4-115.8,277.2-286.3,277.2c-103.6,0-191.9-51.8-231.5-127.9c-42.6,18.3-51.8,39.6-51.8,140.1v895.6H6078L6081,4722z"/>
		<path id="Shape_3_" fill="#EE2C3C" d="M8713,5325.2v816.4h-496.5V5974c-97.5,131-249.8,207.1-490.4,207.1   c-234.6,0-408.2-79.2-484.4-237.6c-30.5-57.9-42.6-121.8-42.6-201.1c0-76.2,12.2-140.1,36.6-195c106.6-222.4,396-274.2,755.5-274.2   h222.4v-21.3c0-85.3-6.1-115.8-24.4-152.3c-30.5-64-97.5-94.4-204.1-94.4c-115.8,0-179.7,27.4-210.2,91.4   c-12.2,27.4-15.2,48.7-18.3,85.3h-505.7c3-76.2,18.3-143.2,45.7-198c97.5-207.1,350.3-301.6,682.4-301.6   c359.5,0,569.6,91.4,667.1,295.5C8691.7,5069.3,8713,5185.1,8713,5325.2z M8189,5715.1c21.3-39.6,27.4-79.2,27.4-155.4v-21.3   h-188.9c-143.2,0-258.9,15.2-289.4,88.3c-9.1,18.3-15.2,36.6-15.2,64c0,24.4,3,45.7,15.2,67c30.5,64,106.6,85.3,195,85.3   C8064.1,5843.1,8152.5,5797.4,8189,5715.1z"/>
		<path id="Shape_4_" fill="#EE2C3C" d="M10513.3,4134.1v2010.5h-484.4V5974c-106.6,143.2-255.9,210.2-456.9,210.2   c-274.2,0-472.2-124.9-575.7-341.2c-51.8-109.7-79.2-243.7-79.2-411.2c0-161.5,30.5-295.5,79.2-408.2   c100.5-216.3,301.6-344.2,575.7-344.2c191.9,0,338.1,64,444.8,195v-743.3L10513.3,4134.1L10513.3,4134.1z M10022.9,5392.2   c0-210.2-100.5-322.9-289.4-322.9c-121.8,0-210.2,48.7-255.9,143.2c-24.4,51.8-36.6,121.8-36.6,222.4   c0,103.6,12.2,170.6,36.6,225.4c45.7,94.4,134,143.2,255.9,143.2c185.8,0,289.4-112.7,289.4-322.9V5392.2z"/>
		<path id="Shape_5_" fill="#EE2C3C" d="M4960,5072.4v365.5h319.9l-12.2,48.7c-39.6,158.4-237.6,265-399.1,265   c-222.4,0-511.8-103.6-511.8-594c0-405.1,185.8-600.1,469.1-600.1c155.4,0,274.2,36.6,347.3,140.1c30.5,45.7,57.9,106.6,60.9,161.5   h566.6c0,0,12.2-252.8-201.1-472.2c-3-3-6.1-6.1-9.1-9.1c-173.6-179.7-432.6-280.3-752.4-280.3   c-654.9,0-1078.4,417.3-1078.4,1066.2c0,749.4,536.1,1014.4,996.1,1014.4c258.9,0,490.4-73.1,630.6-219.3l6.1,185.8h444.8v-15.2   v-316.8v-740.2H4960z"/>
	</g>
</svg>

<?xml version="1.0" ?>
<svg xmlns="http://www.w3.org/2000/svg" baseProfile="tiny-ps" viewBox="0 0 10779.1 10779.1">
	<style>
		.cls0 { fill: #EE2C3C; }
	</style>
	<g>
		<path id="Shape" d="M 1740.1,4722.0 L 1740.1,6141.5 L 1246.6,6141.5 L 1246.6,5964.8 C 1146.1,6104.9 999.9,6184.1 792.7,6184.1 C 457.6,6184.1 265.7,5992.2 265.7,5635.8 L 265.7,4722.0 L 762.2,4722.0 L 762.2,5532.3 C 762.2,5721.2 838.4,5797.3 993.7,5797.3 C 1158.2,5797.3 1246.5,5705.9 1246.5,5517.0 L 1246.5,4722.0 L 1740.1,4722.0" class="cls0"/>
		<path id="Shape_1_" d="M 3583.1,5431.8 C 3583.1,5596.3 3552.6,5730.3 3503.9,5843.0 C 3400.3,6056.2 3202.3,6184.2 2928.2,6184.2 C 2736.3,6184.2 2587.0,6120.2 2483.4,5989.2 L 2483.4,6720.3 L 1986.9,6720.3 L 1986.9,4722.0 L 2471.3,4722.0 L 2471.3,4892.6 C 2577.9,4746.4 2730.2,4679.4 2928.2,4679.4 C 3202.4,4679.4 3400.4,4807.3 3503.9,5023.6 C 3555.7,5136.3 3583.1,5267.3 3583.1,5431.8 M 3056.1,5431.8 C 3056.1,5331.3 3043.9,5261.2 3019.5,5209.4 C 2976.9,5115.0 2885.5,5066.2 2763.6,5066.2 C 2577.8,5066.2 2474.2,5178.9 2474.2,5389.1 L 2474.2,5468.3 C 2474.2,5678.5 2574.7,5794.2 2763.6,5794.2 C 2885.4,5794.2 2973.8,5745.5 3019.5,5651.0 C 3043.9,5599.4 3056.1,5529.3 3056.1,5431.8" class="cls0"/>
		<path id="Shape_2_" d="M 6081.0,4722.0 L 6574.5,4722.0 L 6574.5,4850.0 C 6650.7,4731.2 6736.0,4682.5 6854.8,4682.5 C 7031.5,4682.5 7144.2,4792.2 7144.2,4959.7 C 7144.2,5118.1 7028.4,5236.9 6857.9,5236.9 C 6754.3,5236.9 6666.0,5185.1 6626.4,5109.0 C 6583.8,5127.3 6574.6,5148.6 6574.6,5249.1 L 6574.6,6144.7 L 6078.0,6144.7 L 6081.0,4722.0" class="cls0"/>
		<path id="Shape_3_" d="M 8713.0,5325.2 L 8713.0,6141.6 L 8216.5,6141.6 L 8216.5,5974.0 C 8119.0,6105.0 7966.7,6181.1 7726.1,6181.1 C 7491.5,6181.1 7317.9,6101.9 7241.7,5943.5 C 7211.2,5885.6 7199.1,5821.7 7199.1,5742.4 C 7199.1,5666.2 7211.3,5602.3 7235.7,5547.4 C 7342.3,5325.0 7631.7,5273.2 7991.2,5273.2 L 8213.6,5273.2 L 8213.6,5251.9 C 8213.6,5166.6 8207.5,5136.1 8189.2,5099.6 C 8158.7,5035.6 8091.7,5005.2 7985.1,5005.2 C 7869.3,5005.2 7805.4,5032.6 7774.9,5096.6 C 7762.7,5124.0 7759.7,5145.3 7756.6,5181.9 L 7250.9,5181.9 C 7253.9,5105.7 7269.2,5038.7 7296.6,4983.9 C 7394.1,4776.8 7646.9,4682.3 7979.0,4682.3 C 8338.5,4682.3 8548.6,4773.7 8646.1,4977.8 C 8691.7,5069.3 8713.0,5185.1 8713.0,5325.2 M 8189.0,5715.1 C 8210.3,5675.5 8216.4,5635.9 8216.4,5559.7 L 8216.4,5538.4 L 8027.5,5538.4 C 7884.3,5538.4 7768.6,5553.6 7738.1,5626.7 C 7729.0,5645.0 7722.9,5663.3 7722.9,5690.7 C 7722.9,5715.1 7725.9,5736.4 7738.1,5757.7 C 7768.6,5821.7 7844.7,5843.0 7933.1,5843.0 C 8064.1,5843.1 8152.5,5797.4 8189.0,5715.1" class="cls0"/>
		<path id="Shape_4_" d="M 10513.3,4134.1 L 10513.3,6144.6 L 10028.9,6144.6 L 10028.9,5974.0 C 9922.3,6117.2 9773.0,6184.2 9572.0,6184.2 C 9297.8,6184.2 9099.8,6059.3 8996.3,5843.0 C 8944.5,5733.3 8917.1,5599.3 8917.1,5431.8 C 8917.1,5270.3 8947.6,5136.3 8996.3,5023.6 C 9096.8,4807.3 9297.9,4679.4 9572.0,4679.4 C 9763.9,4679.4 9910.1,4743.4 10016.8,4874.4 L 10016.8,4131.1 L 10513.3,4134.1 L 10513.3,4134.1 M 10022.9,5392.2 C 10022.9,5182.0 9922.4,5069.3 9733.5,5069.3 C 9611.7,5069.3 9523.3,5118.0 9477.6,5212.5 C 9453.2,5264.3 9441.0,5334.3 9441.0,5434.9 C 9441.0,5538.5 9453.2,5605.5 9477.6,5660.3 C 9523.3,5754.7 9611.6,5803.5 9733.5,5803.5 C 9919.3,5803.5 10022.9,5690.8 10022.9,5480.6 L 10022.9,5392.2" class="cls0"/>
		<path id="Shape_5_" d="M 4960.0,5072.4 L 4960.0,5437.9 L 5279.9,5437.9 L 5267.7,5486.6 C 5228.1,5645.0 5030.1,5751.6 4868.6,5751.6 C 4646.2,5751.6 4356.8,5648.0 4356.8,5157.6 C 4356.8,4752.5 4542.6,4557.5 4825.9,4557.5 C 4981.3,4557.5 5100.1,4594.1 5173.2,4697.6 C 5203.7,4743.3 5231.1,4804.2 5234.1,4859.1 L 5800.7,4859.1 C 5800.7,4859.1 5812.9,4606.3 5599.6,4386.9 C 5596.6,4383.9 5593.5,4380.8 5590.5,4377.8 C 5416.9,4198.1 5157.9,4097.5 4838.1,4097.5 C 4183.2,4097.5 3759.7,4514.8 3759.7,5163.7 C 3759.7,5913.1 4295.8,6178.1 4755.8,6178.1 C 5014.7,6178.1 5246.2,6105.0 5386.4,5958.8 L 5392.5,6144.6 L 5837.3,6144.6 L 5837.3,6129.4 L 5837.3,5812.6 L 5837.3,5072.4 L 4960.0,5072.4 L 4960.0,5072.4" class="cls0"/>
	</g>
</svg>
